X:1
T: Steppen
R:Polkett
O:Västerbotten
Z:Anton Teljebäck
M:4/4
L:1/8
K:D
|:Ad fd f/g/f/e/ fd| AB/c/ dc d2 d2 | E>F GB A2 A2 | E>F GB A/B/A/G/ FA | 
  Ad fd f/g/f/e/ fd| AB/c/ dc d2 d2 | E>F GB A2 A2 | A,>C EF D4 :|
|: f/f/f/f/ dA f/f/f/f/ d2 | ba a>f gf e2 | e/e/e/e/ Ac e/e/e/e/ c2 | ba a>g fe d2 | 
de/f/ de/f/ de/f/ de/f/ | Bc/d/ Bc/d/ Bc/d/ Bc/d/ | e2 e>f ed cB | A2 a/^g/a/b/ aA Bc | dz fz d4 :|

